T: Jim Coleman's
M: 4/4
L: 1/8
K: Ador
BAeA BAeA|BE-E2 GBdB|BAeA Bdea|gedB BAAc|
BAeA Bged|BEEE G3B|AGEF GBef|gedB |1 BAAc:|2 BAAd|
ea-a2 b2ab|gedB GABd|eaae gabg|gedB BAAe|
a3e a2ea|gedB GABd|eA-A2 egag|gedB |1 BAAd:|2 BAAc|
</html>
